build/svg/cmd/sc_tablemodefixprop.svg

<?xml version="1.0" encoding="UTF-8" standalone="no"?>
<svg
   xmlns:dc="http://purl.org/dc/elements/1.1/"
   xmlns:cc="http://creativecommons.org/ns#"
   xmlns:rdf="http://www.w3.org/1999/02/22-rdf-syntax-ns#"
   xmlns:svg="http://www.w3.org/2000/svg"
   xmlns="http://www.w3.org/2000/svg"
   xmlns:sodipodi="http://sodipodi.sourceforge.net/DTD/sodipodi-0.dtd"
   xmlns:inkscape="http://www.inkscape.org/namespaces/inkscape"
   viewBox="0 0 16 16"
   version="1.1"
   id="svg20"
   sodipodi:docname="sc_tablemodefixprop.svg"
   inkscape:version="0.92.5 (2060ec1f9f, 2020-04-08)"
   inkscape:export-filename="/home/jupiter007/Libreoffice yaru theme fullcolor/build/cmd/sc_tablemodefixprop.png"
   inkscape:export-xdpi="96"
   inkscape:export-ydpi="96"><metadata
   id="metadata26">
  <rdf:RDF>
    <cc:Work
       rdf:about="">
      <dc:format>image/svg+xml</dc:format>
      <dc:type
         rdf:resource="http://purl.org/dc/dcmitype/StillImage" />
    </cc:Work>
  </rdf:RDF>
</metadata>
<defs
   id="defs24" />
<sodipodi:namedview
   pagecolor="#ffffff"
   bordercolor="#666666"
   borderopacity="1"
   objecttolerance="10"
   gridtolerance="10"
   guidetolerance="10"
   inkscape:pageopacity="0"
   inkscape:pageshadow="2"
   inkscape:window-width="1920"
   inkscape:window-height="1011"
   id="namedview22"
   showgrid="true"
   inkscape:zoom="41.7193"
   inkscape:cx="5.1933417"
   inkscape:cy="7.5143242"
   inkscape:window-x="0"
   inkscape:window-y="32"
   inkscape:window-maximized="1"
   inkscape:current-layer="svg20">
  <inkscape:grid
     type="xygrid"
     id="grid833" />
</sodipodi:namedview>

/&amp;gt;<path
   style="opacity:0.6;fill:#000000;stroke:#000000;stroke-width:2;stroke-linejoin:round;stroke-miterlimit:4;stroke-dasharray:none"
   id="path840"
   d="M 3,12 V 9.9999999 H 2 V 15 h 1 v -2 h 10 v 2 h 1 V 9.9999999 H 13 V 12 Z"
   inkscape:connector-curvature="0"
   sodipodi:nodetypes="ccccccccccccc" />
<path
   d="M 3,12 V 9.9999999 H 2 V 15 h 1 v -2 h 10 v 2 h 1 V 9.9999999 H 13 V 12 Z"
   id="path2"
   style="fill:#aee3f8;fill-opacity:1"
   inkscape:connector-curvature="0"
   sodipodi:nodetypes="ccccccccccccc" />
<path
   style="opacity:1;fill:#ffffff;fill-opacity:1;stroke:none;stroke-width:2;stroke-linecap:round;stroke-linejoin:round;stroke-miterlimit:4;stroke-dasharray:none;stroke-opacity:1"
   d="M 3,1.9999998 V 7.9999999 H 13 V 1.9999998 Z"
   id="rect820"
   inkscape:connector-curvature="0"
   sodipodi:nodetypes="ccccc" />
<path
   style="fill:#6d6d6d;fill-opacity:1"
   d="m 5,0.99999985 c -2,0 -3,0 -3,2.00000005 v 5 h 1 3 1 2 1 3 1 v -5 C 14,0.99999985 13,0.99999985 11,0.99999985 Z M 5,1.9999998 H 6 V 3.9999999 H 3 v -1 C 3,1.9999998 4.0000001,1.9999998 5,1.9999998 Z m 2,0 H 9 V 3.9999999 H 7 Z m 3,0 h 1 c 1,0 2,0 2,1.0000001 v 1 H 12 11 10 Z M 3,4.9999999 h 3 v 2 H 3 Z m 4,0 h 2 v 2 H 7 Z m 3,0 h 1 1 1 v 2 h -1 -1 -1 z"
   id="path2-3"
   inkscape:connector-curvature="0"
   sodipodi:nodetypes="ssccccccccsssscccssccccccsscccccccccccccccccccccccc" />
<g
   style="fill:#000000;fill-opacity:1;stroke:#000000;opacity:0.6;stroke-width:2;stroke-miterlimit:4;stroke-dasharray:none;stroke-linejoin:round"
   id="g851"
   fill="#762572">
  <rect
     style="fill:#000000;fill-opacity:1;stroke:#000000;stroke-width:2;stroke-miterlimit:4;stroke-dasharray:none;stroke-linejoin:round"
     id="rect845"
     y="10"
     x="6"
     width="2"
     ry="1"
     height="2" />
  <circle
     style="fill:#000000;fill-opacity:1;stroke:#000000;stroke-width:2;stroke-miterlimit:4;stroke-dasharray:none;stroke-linejoin:round"
     id="circle847"
     r="1"
     cy="14"
     cx="10" />
  <path
     style="fill:#000000;fill-opacity:1;stroke:#000000;stroke-width:2;stroke-miterlimit:4;stroke-dasharray:none;stroke-linejoin:round"
     id="path849"
     fill-rule="evenodd"
     d="m10.3 10-4.3 4.3.7.7 4.3-4.3z" />
</g>
<g
   fill="#762572"
   id="g18"
   style="fill:#aee3f8;fill-opacity:1">
  <rect
     height="2"
     ry="1"
     width="2"
     x="6"
     y="10"
     id="rect12"
     style="fill:#aee3f8;fill-opacity:1" />
  <circle
     cx="10"
     cy="14"
     r="1"
     id="circle14"
     style="fill:#aee3f8;fill-opacity:1" />
  <path
     d="m10.3 10-4.3 4.3.7.7 4.3-4.3z"
     fill-rule="evenodd"
     id="path16"
     style="fill:#aee3f8;fill-opacity:1" />
</g>
</svg>

<svg xmlns="http://www.w3.org/2000/svg" viewBox="0 0 16 16">/&amp;gt;<path d="M3 12v-2H2v5h1v-2h10v2h1v-5h-1v2z" opacity=".6" stroke="#000" stroke-width="2" stroke-linejoin="round"/><path d="M3 12v-2H2v5h1v-2h10v2h1v-5h-1v2z" fill="#aee3f8"/><path d="M3 2v6h10V2z" fill="#fff"/><path d="M5 1C3 1 2 1 2 3v5h12V3c0-2-1-2-3-2zm0 1h1v2H3V3c0-1 1-1 2-1zm2 0h2v2H7zm3 0h1c1 0 2 0 2 1v1h-3zM3 5h3v2H3zm4 0h2v2H7zm3 0h3v2h-3z" fill="#6d6d6d"/><g stroke="#000" opacity=".6" stroke-width="2" stroke-linejoin="round"><rect y="10" x="6" width="2" ry="1" height="2"/><circle r="1" cy="14" cx="10"/><path fill-rule="evenodd" d="M10.3 10L6 14.3l.7.7 4.3-4.3z"/></g><g fill="#aee3f8"><rect height="2" ry="1" width="2" x="6" y="10"/><circle cx="10" cy="14" r="1"/><path d="M10.3 10L6 14.3l.7.7 4.3-4.3z" fill-rule="evenodd"/></g></svg>
